NikonZR_ELZONE.cube
TITLE "Generated by Resolve"
LUT_3D_SIZE 5
0 0 0
1 0 0
1 0 0
1 0 0
1 0 0
0 0.972549 0
1 0.972549 7.62951e-05
1 0.972549 0
1 0.972549 0
1 0.972549 0
0 0 0
1 0 0
1 0 0.000106813
1 0 0
1 0 0
0 1 0
1 1 0
1 1 0
1 1 0
1 1 0
0 1 0
1 1 0
1 1 0
1 1 0
1 1 0
0 0 0.654902
1 0 0.654902
1 0 0.654902
1 0 0.654902
1 0 0.654902
4.57771e-05 0.972549 0.654902
1 0.972549 0.654902
1 0.972549 0.654902
1 0.972549 0.654902
1 0.972549 0.654902
0 0 0.654902
1 0 0.654902
1 0 0.654902
1 0 0.654902
1 0 0.654902
0 1 0.654902
1 1 0.654902
1 1 0.654902
1 1 0.654902
1 1 0.654902
0 1 0.654902
1 1 0.654902
1 1 0.654902
1 1 0.654902
1 1 0.654902
0 0 1
1 0 1
1 0 1
1 0 1
1 0 1
1.5259e-05 0.972549 1
1 0.972549 1
1 0.972549 1
1 0.972549 1
1 0.972549 1
0 0 1
1 0 1
1 0 1
1 0 1
1 0 1
0 1 1
1 1 1
1 1 1
1 1 1
1 1 1
0 1 1
1 1 1
1 1 1
1 1 1
1 1 1
0 0 1
1 0 1
1 0 1
1 0 1
1 0 1
0 0.972549 1
1 0.972549 1
1 0.972549 1
1 0.972549 1
1 0.972549 1
0 0 1
1 0 1
1 0 1
1 0 1
1 0 1
0 1 1
1 1 1
1 1 1
1 1 1
1 1 1
0 1 1
1 1 1
1 1 1
1 1 1
1 1 1
0 0 1
1 0 1
1 0 1
1 0 1
1 0 1
0 0.972549 1
1 0.972549 1
1 0.972549 1
1 0.972549 1
1 0.972549 1
0 0 1
1 0 1
1 0 1
1 0 1
1 0 1
0 1 1
1 1 1
1 1 1
1 1 1
1 1 1
0 1 1
1 1 1
1 1 1
1 1 1
1 1 1
