NikonZR_ELZONE_V2.cube
TITLE "Generated by Resolve & Made by Kouraku"
LUT_3D_SIZE 33
0.392386 0.283665 0.597864
0.392523 0.283772 0.598062
0.392676 0.283894 0.598276
0.392828 0.284016 0.598505
0.392996 0.284138 0.598718
0.393149 0.28426 0.598947
0.393301 0.284382 0.599161
0.393454 0.284504 0.599374
0.393606 0.284627 0.599603
0.393774 0.284749 0.599832
0.393927 0.284871 0.600046
0.39408 0.284993 0.600275
0.628061 0.498314 0.727459
0.0848707 0.442771 0.640482
0.0851301 0.443549 0.641535
0.0854047 0.444312 0.642588
0.172625 0.674571 0.890959
0.172778 0.674998 0.891524
0.17293 0.675441 0.892073
0.103456 0.657755 0.297887
0.103716 0.658747 0.29839
0.103975 0.659709 0.298909
0.104234 0.66067 0.299413
0.104494 0.661631 0.299916
0.353399 0.718395 0.276524
0.353674 0.718883 0.276753
0.353948 0.719371 0.276982
0.354223 0.71986 0.277195
0.354482 0.720348 0.277424
0.354757 0.720836 0.277653
0.573892 0.785168 0.250126
0.574182 0.785534 0.250278
0.574456 0.785916 0.250416
0.392752 0.283955 0.598398
0.39292 0.284077 0.598611
0.393072 0.284199 0.59884
0.393225 0.284321 0.599054
0.393378 0.284443 0.599268
0.39353 0.284566 0.599496
0.393683 0.284688 0.59971
0.393851 0.28481 0.599939
0.394003 0.284932 0.600168
0.394156 0.285054 0.600381
0.628214 0.498436 0.727611
0.0845045 0.441672 0.638987
0.0847639 0.442451 0.64004
0.0850233 0.443214 0.641093
0.172686 0.674739 0.891173
0.172839 0.675166 0.891722
0.172992 0.675593 0.892287
0.103075 0.656367 0.297154
0.103334 0.657343 0.297658
0.103593 0.658305 0.298177
0.103853 0.659281 0.29868
0.104112 0.660243 0.299184
0.353475 0.718532 0.276585
0.35375 0.719005 0.276814
0.354009 0.719493 0.277028
0.354284 0.719982 0.277256
0.354559 0.72047 0.277485
0.354818 0.720958 0.277699
0.573983 0.785275 0.250172
0.574258 0.785641 0.250309
0.574533 0.786023 0.250462
0.470115 0.470115 0.470115
0.470451 0.470451 0.470451
0.393149 0.28426 0.598947
0.393301 0.284382 0.599176
0.393454 0.284504 0.59939
0.393606 0.284627 0.599603
0.393774 0.284749 0.599817
0.393927 0.284871 0.600046
0.39408 0.284993 0.600275
0.394232 0.285115 0.600488
0.628351 0.498558 0.727779
0.084123 0.440574 0.637491
0.0843824 0.441337 0.638529
0.0846418 0.4421 0.639567
0.172747 0.674907 0.891402
0.1729 0.675334 0.891951
0.173053 0.675761 0.8925
0.102708 0.654978 0.296422
0.102968 0.65594 0.296925
0.103227 0.656901 0.297429
0.103487 0.657877 0.297948
0.103731 0.658839 0.298451
0.353567 0.718685 0.276661
0.353826 0.719158 0.276875
0.354086 0.719631 0.277089
0.35436 0.720119 0.277317
0.354635 0.720607 0.277546
0.354894 0.72108 0.27776
0.574075 0.785397 0.250217
0.57435 0.785763 0.250355
0.574624 0.78613 0.250507
0.470192 0.470192 0.470192
0.470527 0.470527 0.470527
0.470848 0.470848 0.470848
0.471168 0.471168 0.471168
0.393545 0.284566 0.599512
0.393698 0.284688 0.599725
0.393851 0.28481 0.599939
0.394003 0.284932 0.600153
0.394156 0.285054 0.600381
0.394308 0.285176 0.600595
0.628519 0.49868 0.727962
0.0837568 0.43949 0.635996
0.0840162 0.440253 0.637034
0.0842756 0.441001 0.638071
0.172808 0.67509 0.89163
0.172961 0.675517 0.89218
0.173114 0.675944 0.892729
0.102342 0.653605 0.295705
0.102586 0.654551 0.296208
0.102846 0.655512 0.296696
0.103105 0.656489 0.297215
0.103365 0.65745 0.297719
0.353658 0.718837 0.276738
0.353918 0.71931 0.276951
0.354177 0.719783 0.277165
0.354437 0.720256 0.277378
0.354711 0.720745 0.277607
0.354971 0.721218 0.277821
0.574166 0.785534 0.250263
0.574441 0.785885 0.250416
0.574716 0.786252 0.250553
0.470283 0.470283 0.470283
0.470603 0.470603 0.470603
0.470924 0.470924 0.470924
0.471244 0.471244 0.471244
0.471565 0.471565 0.471565
0.471885 0.471885 0.471885
0.393927 0.284871 0.600061
0.39408 0.284993 0.600275
0.394232 0.285115 0.600488
0.3944 0.285237 0.600717
0.628672 0.498817 0.728145
0.628977 0.499062 0.728496
0.08365 0.439155 0.635554
0.0839094 0.439918 0.636591
0.172869 0.675273 0.891859
0.173022 0.675715 0.892424
0.173175 0.676127 0.892958
0.101976 0.652232 0.294972
0.10222 0.653178 0.295476
0.10248 0.654139 0.295979
0.102739 0.655085 0.296483
0.102998 0.656062 0.296986
0.35375 0.71902 0.276814
0.354009 0.719478 0.277028
0.354269 0.719951 0.277241
0.354528 0.720424 0.277455
0.354788 0.720897 0.277668
0.355062 0.72137 0.277897
0.574273 0.785657 0.250324
0.574533 0.786023 0.250462
0.574807 0.786374 0.250599
0.470359 0.470359 0.470359
0.470695 0.470695 0.470695
0.471015 0.471015 0.471015
0.471336 0.471336 0.471336
0.471641 0.471641 0.471641
0.471962 0.471962 0.471962
0.472297 0.472297 0.472297
0.984222 0.891157 0.0111238
0.394324 0.285176 0.60061
0.394476 0.285298 0.600824
0.62884 0.498955 0.728328
0.629145 0.499199 0.728679
0.0833753 0.438346 0.63444
0.0835431 0.438834 0.635111
0.172946 0.675486 0.892134
0.173098 0.675898 0.892668
0.173251 0.676326 0.893217
0.10161 0.650858 0.29427
0.101854 0.651804 0.294759
0.102113 0.652766 0.295262
0.102373 0.653712 0.295766
0.102632 0.654673 0.296269
0.353857 0.719203 0.276905
0.354116 0.719676 0.277119
0.35436 0.720134 0.277317
0.35462 0.720592 0.277531
0.354879 0.721065 0.277745
0.355154 0.721538 0.277974
0.57438 0.785809 0.25037
0.574639 0.78616 0.250523
0.574914 0.786511 0.25066
0.470466 0.470466 0.470466
0.470787 0.470787 0.470787
0.471107 0.471107 0.471107
0.471427 0.471427 0.471427
0.471733 0.471733 0.471733
0.472053 0.472053 0.472053
0.472374 0.472374 0.472374
0.984344 0.891264 0.0111238
0.98471 0.8916 0.0111391
0.985077 0.891936 0.0111391
0.629007 0.499092 0.728527
0.629328 0.499352 0.728878
0.0836347 0.439139 0.635538
0.0836805 0.439246 0.635676
0.173022 0.6757 0.892424
0.173175 0.676112 0.892943
0.173327 0.676539 0.893492
0.101244 0.6495 0.293553
0.101488 0.650446 0.294057
0.101747 0.651392 0.294545
0.102007 0.652354 0.295048
0.102251 0.6533 0.295537
0.353964 0.719402 0.276997
0.354223 0.719875 0.277211
0.354482 0.720333 0.277409
0.354726 0.72079 0.277623
0.354986 0.721248 0.277836
0.355245 0.721706 0.27805
0.574487 0.785946 0.250431
0.574762 0.786297 0.250568
0.575021 0.786664 0.250721
0.470573 0.470573 0.470573
0.470893 0.470893 0.470893
0.471199 0.471199 0.471199
0.471519 0.471519 0.471519
0.471839 0.471839 0.471839
0.47216 0.47216 0.47216
0.472465 0.472465 0.472465
0.984482 0.891386 0.0111238
0.984848 0.891722 0.0111391
0.985214 0.892058 0.0111391
1 0.959808 0.64387
1 0.960037 0.644022
0.0839094 0.439948 0.636622
0.0839551 0.440055 0.636774
0.173114 0.675944 0.892714
0.173251 0.676341 0.893233
0.173404 0.676753 0.893767
0.173541 0.67718 0.894301
0.101167 0.649226 0.293416
0.101381 0.65005 0.293843
0.10164 0.650996 0.294331
0.1019 0.651942 0.294835
0.354086 0.719615 0.277089
0.354345 0.720073 0.277302
0.354589 0.720531 0.277516
0.354849 0.720989 0.277714
0.355093 0.721447 0.277928
0.355352 0.721904 0.278141
0.574609 0.786099 0.250492
0.574868 0.78645 0.250629
0.575143 0.786801 0.250767
0.470695 0.470695 0.470695
0.471 0.471 0.471
0.471321 0.471321 0.471321
0.471641 0.471641 0.471641
0.471946 0.471946 0.471946
0.472251 0.472251 0.472251
0.472572 0.472572 0.472572
0.984619 0.891508 0.0111391
0.984985 0.891844 0.0111391
0.985351 0.89218 0.0111543
1 0.959915 0.643931
1 0.960143 0.644099
1 0.960357 0.644251
1 0.960586 0.644419
0.17319 0.676188 0.893034
0.173342 0.676585 0.893553
0.17348 0.676997 0.894072
0.173617 0.677409 0.894591
0.101442 0.650233 0.293935
0.101472 0.65037 0.294011
0.101503 0.650492 0.294072
0.101534 0.650614 0.294133
0.354208 0.719844 0.277195
0.354452 0.720302 0.277394
0.354711 0.72076 0.277607
0.354955 0.721202 0.277821
0.355215 0.72166 0.278019
0.355459 0.722118 0.278233
0.574716 0.786252 0.250553
0.57499 0.786618 0.25069
0.575265 0.786969 0.250843
0.470817 0.470817 0.470817
0.471122 0.471122 0.471122
0.471443 0.471443 0.471443
0.471748 0.471748 0.471748
0.472068 0.472068 0.472068
0.472374 0.472374 0.472374
0.472679 0.472679 0.472679
0.984771 0.891646 0.0111391
0.985122 0.891981 0.0111391
0.985489 0.892302 0.0111543
1 0.960021 0.644007
1 0.96025 0.64416
1 0.960464 0.644327
1 0.960693 0.64448
1 0.960922 0.644648
1 0.961151 0.644816
0.173571 0.677241 0.894392
0.173709 0.677653 0.894896
0.101701 0.65124 0.294453
0.101747 0.651377 0.29453
0.101778 0.651499 0.294606
0.101808 0.651621 0.294667
0.354345 0.720088 0.277302
0.354589 0.720531 0.277501
0.354833 0.720974 0.277714
0.355093 0.721431 0.277928
0.355337 0.721889 0.278126
0.355581 0.722332 0.27834
0.574853 0.786435 0.250629
0.575113 0.78677 0.250767
0.575387 0.787137 0.250904
0.470954 0.470954 0.470954
0.47126 0.47126 0.47126
0.471565 0.471565 0.471565
0.47187 0.47187 0.47187
0.47219 0.47219 0.47219
0.472496 0.472496 0.472496
0.472801 0.472801 0.472801
0.984924 0.891798 0.0111391
0.985275 0.892119 0.0111543
0.985641 0.892439 0.0111543
1 0.960128 0.644083
1 0.960357 0.644236
1 0.960571 0.644404
1 0.9608 0.644556
1 0.961028 0.644709
1 0.961257 0.644877
1 0.961486 0.645045
0.959258 0.443366 0.166476
0.101976 0.652247 0.294987
0.102007 0.652384 0.295064
0.102052 0.652506 0.295125
0.102083 0.652644 0.295201
0.354482 0.720348 0.277424
0.354726 0.720775 0.277623
0.354971 0.721218 0.277821
0.35523 0.721675 0.278035
0.355474 0.722118 0.278233
0.355718 0.722576 0.278447
0.57499 0.786603 0.25069
0.57525 0.786954 0.250828
0.575509 0.787289 0.250965
0.471107 0.471107 0.471107
0.471397 0.471397 0.471397
0.471702 0.471702 0.471702
0.472007 0.472007 0.472007
0.472313 0.472313 0.472313
0.472618 0.472618 0.472618
0.472923 0.472923 0.472923
0.985092 0.891936 0.0111391
0.985443 0.892256 0.0111543
0.985794 0.892592 0.0111543
1 0.960235 0.644144
1 0.960464 0.644312
1 0.960693 0.644465
1 0.960906 0.644633
1 0.961135 0.644785
1 0.961364 0.644953
1 0.961578 0.645106
0.959411 0.443442 0.166522
0.959808 0.443656 0.166613
0.96022 0.443854 0.16672
0.102312 0.653513 0.295659
0.102358 0.653651 0.29572
0.102388 0.653773 0.295796
0.354879 0.72105 0.277745
0.355108 0.721477 0.277943
0.355352 0.72192 0.278141
0.355612 0.722377 0.278355
0.355856 0.72282 0.278553
0.575128 0.786786 0.250767
0.575387 0.787137 0.250904
0.575647 0.787472 0.251041
0.471244 0.471244 0.471244
0.47155 0.47155 0.47155
0.471855 0.471855 0.471855
0.472145 0.472145 0.472145
0.47245 0.47245 0.47245
0.472755 0.472755 0.472755
0.47306 0.47306 0.47306
0.985245 0.892088 0.0111543
0.985595 0.892409 0.0111543
0.985962 0.892729 0.0111696
1 0.960342 0.644221
1 0.960571 0.644388
1 0.9608 0.644541
1 0.961028 0.644709
1 0.961242 0.644862
1 0.961471 0.645014
1 0.961685 0.645182
0.959564 0.443519 0.166552
0.959976 0.443732 0.166659
0.960372 0.443931 0.166766
0.960769 0.444144 0.166857
0.961181 0.444343 0.166964
0.102647 0.65478 0.296315
0.355032 0.721325 0.277867
0.355261 0.721752 0.278065
0.355505 0.722179 0.278264
0.355749 0.722637 0.278477
0.355993 0.723079 0.278676
0.575265 0.786984 0.250843
0.575525 0.78732 0.25098
0.575784 0.787655 0.251102
0.471412 0.471412 0.471412
0.471717 0.471717 0.471717
0.472007 0.472007 0.472007
0.472297 0.472297 0.472297
0.472602 0.472602 0.472602
0.472892 0.472892 0.472892
0.473198 0.473198 0.473198
0.985428 0.892241 0.0111543
0.985779 0.892561 0.0111543
0.98613 0.892882 0.0111696
1 0.960464 0.644297
1 0.960678 0.644465
1 0.960906 0.644617
1 0.961135 0.644785
1 0.961364 0.644938
1 0.961578 0.64509
1 0.961807 0.645258
0.959716 0.443595 0.166598
0.960128 0.443809 0.16669
0.960525 0.444022 0.166796
0.960922 0.444221 0.166903
0.961334 0.444419 0.166995
0.96173 0.444633 0.167102
0.962127 0.444831 0.167193
0.355428 0.722042 0.278202
0.355657 0.722469 0.278401
0.355901 0.722896 0.278599
0.356146 0.723339 0.278798
0.575418 0.787182 0.250919
0.575677 0.787518 0.251057
0.575936 0.787854 0.251179
0.47158 0.47158 0.47158
0.47187 0.47187 0.47187
0.472175 0.472175 0.472175
0.472465 0.472465 0.472465
0.472755 0.472755 0.472755
0.473045 0.473045 0.473045
0.47335 0.47335 0.47335
0.985595 0.892409 0.0111543
0.985946 0.892729 0.0111696
0.986297 0.89305 0.0111696
1 0.960586 0.644373
1 0.9608 0.644541
1 0.961028 0.644694
1 0.961257 0.644862
1 0.961471 0.645014
1 0.9617 0.645167
1 0.961913 0.645335
0.959884 0.443687 0.166644
0.960296 0.4439 0.166735
0.960693 0.444099 0.166842
0.961089 0.444297 0.166934
0.961486 0.444511 0.167041
0.961883 0.444709 0.167147
0.962295 0.444923 0.167239
0.96875 0.406241 0
0.944579 0.635737 0.278538
0.356054 0.723186 0.278721
0.356298 0.723613 0.27892
0.575586 0.787381 0.250996
0.57583 0.787717 0.251133
0.576089 0.788052 0.25127
0.471748 0.471748 0.471748
0.472038 0.472038 0.472038
0.472343 0.472343 0.472343
0.472633 0.472633 0.472633
0.472923 0.472923 0.472923
0.473213 0.473213 0.473213
0.473503 0.473503 0.473503
0.985779 0.892561 0.0111543
0.98613 0.892897 0.0111696
0.986481 0.893217 0.0111696
1 0.960708 0.644465
1 0.960922 0.644617
1 0.961135 0.64477
1 0.961364 0.644923
1 0.961593 0.64509
1 0.961807 0.645243
1 0.962036 0.645411
0.960067 0.443778 0.16669
0.960464 0.443976 0.166781
0.960861 0.44419 0.166888
0.961257 0.444389 0.166979
0.961654 0.444602 0.167086
0.962051 0.4448 0.167178
0.962448 0.444999 0.167285
0.962844 0.445212 0.167376
0.944732 0.635843 0.278584
0.945159 0.636133 0.278737
0.945571 0.636423 0.278889
0.575738 0.787594 0.251087
0.575998 0.78793 0.251209
0.576242 0.788251 0.251347
0.471931 0.471931 0.471931
0.472221 0.472221 0.472221
0.472511 0.472511 0.472511
0.472801 0.472801 0.472801
0.473091 0.473091 0.473091
0.473381 0.473381 0.473381
0.473671 0.473671 0.473671
0.985962 0.892744 0.0111696
0.986313 0.89305 0.0111696
0.986664 0.893385 0.0111849
1 0.96083 0.644541
1 0.961044 0.644694
1 0.961257 0.644862
1 0.961486 0.645014
1 0.9617 0.645167
1 0.961929 0.645335
1 0.962158 0.645487
0.96025 0.44387 0.166735
0.960647 0.444083 0.166827
0.961044 0.444282 0.166934
0.96144 0.44448 0.167025
0.961837 0.444678 0.167132
0.962234 0.444892 0.167224
0.962631 0.44509 0.16733
0.963027 0.445289 0.167422
0.9449 0.635966 0.278645
0.945312 0.636255 0.278798
0.945724 0.636545 0.27895
0.946136 0.636835 0.279103
0.946548 0.637125 0.279255
0.57641 0.788479 0.251438
0.472129 0.472129 0.472129
0.472419 0.472404 0.472404
0.472694 0.472694 0.472694
0.472984 0.472984 0.472984
0.473274 0.473274 0.473274
0.473564 0.473564 0.473564
0.473854 0.473854 0.473854
0.98616 0.892927 0.0111696
0.986496 0.893233 0.0111696
0.986847 0.893553 0.0111849
1 0.960952 0.644633
1 0.961166 0.644785
1 0.961395 0.644938
1 0.961608 0.64509
1 0.961822 0.645243
1 0.962051 0.645411
1 0.96228 0.645563
1 0.962493 0.645716
0.960845 0.444175 0.166873
0.961227 0.444373 0.166979
0.961624 0.444572 0.167071
0.96202 0.444785 0.167178
0.962417 0.444984 0.167269
0.962798 0.445182 0.167376
0.963195 0.44538 0.167468
0.945068 0.636088 0.278706
0.94548 0.636378 0.278859
0.945907 0.636667 0.279011
0.946303 0.636957 0.279164
0.946715 0.637247 0.279316
0.947127 0.637537 0.279454
0.94754 0.637827 0.279606
0.472602 0.472602 0.472602
0.472892 0.472892 0.472892
0.473167 0.473167 0.473167
0.473457 0.473457 0.473457
0.473747 0.473747 0.473747
0.474037 0.474037 0.474037
0.986358 0.893111 0.0111696
0.986694 0.893416 0.0111849
0.987045 0.893736 0.0111849
0.987396 0.894041 0.0112001
1 0.961303 0.644862
1 0.961517 0.645029
1 0.96173 0.645182
1 0.961944 0.645335
1 0.962173 0.645487
1 0.962402 0.64564
1 0.962615 0.645808
0.961044 0.444282 0.166934
0.961425 0.44448 0.167025
0.961807 0.444678 0.167117
0.962203 0.444877 0.167224
0.9626 0.445075 0.167315
0.962997 0.445274 0.167422
0.963378 0.445472 0.167514
0.945266 0.63621 0.278782
0.945663 0.6365 0.27892
0.94609 0.63679 0.279072
0.946487 0.637079 0.279225
0.946899 0.637369 0.279377
0.947311 0.637659 0.279515
0.947707 0.637949 0.279667
0.917769 0.119203 0.150118
0.918303 0.119326 0.15024
0.473381 0.473381 0.473381
0.473655 0.473655 0.473655
0.473945 0.473945 0.473945
0.474235 0.474235 0.474235
0.986572 0.893294 0.0111849
0.986908 0.893599 0.0111849
0.987243 0.893919 0.0112001
0.987579 0.894224 0.0112001
1 0.961425 0.644953
1 0.961639 0.645106
1 0.961868 0.645258
1 0.962081 0.645411
1 0.962295 0.645579
1 0.962524 0.645731
1 0.962737 0.645884
0.961242 0.444389 0.166979
0.961624 0.444587 0.167071
0.96202 0.44477 0.167178
0.962402 0.444968 0.167269
0.962798 0.445182 0.167361
0.96318 0.44538 0.167468
0.963577 0.445579 0.167559
0.945449 0.636347 0.278859
0.945861 0.636637 0.278996
0.946258 0.636912 0.279149
0.94667 0.637217 0.279286
0.947082 0.637491 0.279438
0.947478 0.637781 0.279591
0.94789 0.638071 0.279728
0.917967 0.119249 0.150164
0.918486 0.119356 0.150286
0.919005 0.119478 0.150423
0.919524 0.119585 0.150546
0.474144 0.474144 0.474144
0.474434 0.474434 0.474434
0.986786 0.893492 0.0111849
0.987121 0.893797 0.0111849
0.987457 0.894102 0.0112001
0.987793 0.894423 0.0112001
1 0.961563 0.645045
1 0.961776 0.645197
1 0.96199 0.64535
1 0.962203 0.645502
1 0.962432 0.645655
1 0.962646 0.645808
1 0.96286 0.645975
0.961456 0.444495 0.167025
0.961837 0.444694 0.167132
0.962219 0.444877 0.167224
0.9626 0.445075 0.167315
0.962997 0.445274 0.167422
0.963378 0.445472 0.167514
0.963775 0.445686 0.167605
0.945663 0.6365 0.27892
0.946059 0.636774 0.279072
0.946456 0.637049 0.27921
0.946853 0.637339 0.279362
0.947265 0.637629 0.279515
0.947677 0.637919 0.279652
0.948074 0.638193 0.279805
0.918181 0.119295 0.15021
0.9187 0.119402 0.150347
0.919219 0.119509 0.150469
0.919722 0.119631 0.150591
0.920241 0.119738 0.150713
0.920745 0.119844 0.150835
0.986999 0.89369 0.0111849
0.987335 0.893996 0.0112001
0.987671 0.894301 0.0112001
0.988006 0.894606 0.0112154
1 0.961685 0.645136
1 0.961898 0.645289
1 0.962127 0.645441
1 0.962341 0.645594
1 0.962554 0.645747
1 0.962768 0.645899
1 0.962997 0.646052
0.961685 0.444602 0.167086
0.962051 0.4448 0.167178
0.962432 0.444999 0.167285
0.962814 0.445182 0.167376
0.963195 0.44538 0.167468
0.963592 0.445579 0.167559
0.963973 0.445777 0.167666
0.945861 0.636637 0.278996
0.946258 0.636912 0.279149
0.946654 0.637201 0.279286
0.947051 0.637476 0.279438
0.947463 0.637766 0.279576
0.947875 0.638056 0.279728
0.948272 0.638331 0.279866
0.91841 0.119341 0.150271
0.918914 0.119448 0.150393
0.919417 0.119554 0.150515
0.919936 0.119677 0.150652
0.920439 0.119783 0.150774
0.920958 0.11989 0.150896
0.921462 0.119997 0.151019
0.871092 0.484428 0.547768
0.987884 0.894499 0.0112154
0.98822 0.894804 0.0112154
1 0.961822 0.645228
1 0.962036 0.64538
1 0.962264 0.645533
1 0.962478 0.645685
1 0.962692 0.645838
1 0.962905 0.645991
1 0.963119 0.646143
0.961898 0.444724 0.167147
0.96228 0.444923 0.167239
0.962661 0.445106 0.16733
0.963043 0.445304 0.167422
0.963424 0.445502 0.167529
0.963806 0.445686 0.16762
0.964187 0.445884 0.167712
0.94609 0.63679 0.279072
0.946471 0.637064 0.279225
0.946868 0.637354 0.279362
0.947265 0.637629 0.2795
0.947662 0.637903 0.279652
0.948074 0.638193 0.279805
0.94847 0.638483 0.279942
0.918654 0.119402 0.150332
0.919158 0.119509 0.150454
0.919661 0.119615 0.150576
0.92015 0.119722 0.150698
0.920668 0.119829 0.15082
0.921172 0.119936 0.150942
0.921675 0.120043 0.151064
0.87129 0.48455 0.54789
0.871763 0.484825 0.548211
0.872251 0.485115 0.548531
1 0.961959 0.645319
1 0.962173 0.645472
1 0.962386 0.645624
1 0.962615 0.645777
1 0.962829 0.64593
1 0.963043 0.646082
1 0.963256 0.646235
0.962127 0.444831 0.167193
0.962509 0.445029 0.1673
0.96289 0.445228 0.167391
0.963272 0.445426 0.167483
0.963638 0.445609 0.167575
0.964019 0.445808 0.167681
0.964401 0.446006 0.167773
0.946303 0.636957 0.279164
0.9467 0.637232 0.279301
0.947097 0.637507 0.279438
0.947478 0.637781 0.279591
0.947875 0.638056 0.279728
0.948272 0.638346 0.279866
0.948684 0.638621 0.280018
0.918914 0.119448 0.150393
0.919402 0.119554 0.150515
0.919905 0.119661 0.150637
0.920394 0.119768 0.150759
0.920897 0.119875 0.150881
0.921416 0.119982 0.151003
0.921904 0.120089 0.151125
0.871504 0.484672 0.548043
0.871977 0.484947 0.548348
0.87245 0.485237 0.548653
0.872923 0.485527 0.548989
0.873396 0.485817 0.549294
1 0.962539 0.645716
1 0.962753 0.645869
1 0.962966 0.646021
1 0.96318 0.646174
1 0.963394 0.646326
0.962371 0.444968 0.167269
0.962753 0.445151 0.167361
0.963134 0.44535 0.167452
0.9635 0.445548 0.167544
0.963882 0.445731 0.167636
0.964248 0.44593 0.167727
0.96463 0.446113 0.167834
0.946532 0.63711 0.27924
0.946929 0.637385 0.279393
0.947326 0.637659 0.27953
0.947707 0.637934 0.279667
0.948104 0.638209 0.279805
0.948501 0.638498 0.279957
0.948898 0.638773 0.280095
0.919188 0.119509 0.150454
0.919676 0.119615 0.150576
0.920165 0.119722 0.150698
0.920653 0.119829 0.15082
0.921141 0.119936 0.150942
0.921645 0.120043 0.151064
0.922148 0.12015 0.151186
0.871733 0.48481 0.54818
0.87219 0.485084 0.548501
0.872663 0.485359 0.548806
0.873121 0.485649 0.549111
0.87361 0.485939 0.549432
0.874083 0.486213 0.549752
0.874556 0.486503 0.550072
1 0.963104 0.646113
1 0.963317 0.646265
1 0.963531 0.646418
0.962631 0.44509 0.16733
0.962997 0.445274 0.167422
0.963363 0.445472 0.167514
0.963745 0.44567 0.167605
0.964126 0.445853 0.167697
0.964492 0.446052 0.167788
0.964874 0.446235 0.16788
0.946777 0.637278 0.279332
0.947158 0.637552 0.279469
0.947555 0.637827 0.279606
0.947951 0.638102 0.279759
0.948333 0.638376 0.279896
0.94873 0.638651 0.280034
0.949111 0.638926 0.280171
0.919463 0.11957 0.15053
0.919951 0.119677 0.150652
0.920439 0.119783 0.150759
0.920928 0.119875 0.150881
0.921416 0.119982 0.151003
0.921904 0.120089 0.151125
0.922408 0.120195 0.151247
0.871962 0.484947 0.548348
0.872419 0.485222 0.548653
0.872892 0.485496 0.548959
0.87335 0.485786 0.549264
0.873823 0.486061 0.549584
0.874296 0.486351 0.549889
0.874769 0.486625 0.55021
0.875227 0.486915 0.550515
0.93843 0.739132 0.742138
1 0.963684 0.64651
0.96289 0.445228 0.167391
0.963256 0.445411 0.167483
0.963623 0.445594 0.167575
0.963989 0.445792 0.167666
0.96437 0.445991 0.167758
0.964736 0.446174 0.167849
0.965118 0.446357 0.167941
0.947021 0.637461 0.279423
0.947402 0.63772 0.279561
0.947799 0.63801 0.279698
0.94818 0.63827 0.279835
0.948577 0.638544 0.279973
0.948959 0.638819 0.280125
0.94934 0.639094 0.280262
0.919738 0.119631 0.150591
0.920241 0.119738 0.150713
0.920714 0.119844 0.150835
0.921202 0.119936 0.150958
0.921691 0.120043 0.15108
0.922179 0.12015 0.151186
0.922667 0.120256 0.151308
0.872206 0.4851 0.548501
0.872663 0.485374 0.548806
0.873121 0.485649 0.549111
0.873579 0.485924 0.549416
0.874037 0.486198 0.549722
0.87451 0.486473 0.550042
0.874983 0.486763 0.550362
0.875456 0.487037 0.550668
0.938582 0.739239 0.74226
0.938872 0.739467 0.742489
0.939162 0.739712 0.742733
0.963516 0.445548 0.167544
0.963882 0.445731 0.167636
0.964248 0.445914 0.167727
0.964614 0.446113 0.167819
0.964996 0.446311 0.167926
0.965362 0.446494 0.168017
0.94728 0.637629 0.279515
0.947662 0.637903 0.279652
0.948043 0.638178 0.279789
0.94844 0.638453 0.279927
0.948821 0.638727 0.280064
0.949203 0.638987 0.280201
0.949584 0.639261 0.280354
0.920043 0.119692 0.150668
0.920516 0.119799 0.15079
0.921019 0.119905 0.150912
0.921492 0.120012 0.151034
0.921981 0.120104 0.151141
0.922454 0.120211 0.151263
0.922942 0.120317 0.151385
0.872465 0.485252 0.548669
0.872923 0.485527 0.548974
0.873365 0.485801 0.549279
0.873823 0.486061 0.549584
0.874281 0.486336 0.549889
0.874739 0.486625 0.550195
0.875212 0.4869 0.550515
0.875685 0.487175 0.55082
0.93872 0.739361 0.742382
0.93901 0.73959 0.742611
0.9393 0.739818 0.742855
0.939605 0.740063 0.743084
0.939895 0.740307 0.743328
0.964508 0.446052 0.167803
0.964874 0.44625 0.167895
0.965255 0.446433 0.167987
0.965621 0.446632 0.168078
0.94754 0.637827 0.279606
0.947921 0.638086 0.279744
0.948302 0.638361 0.279881
0.948684 0.638636 0.280018
0.949081 0.638895 0.280156
