NikonZR_ELZONE.cube
TITLE "Generated by Resolve"
LUT_3D_SIZE 33
0 0 0
0.103578 0 0
0.0901961 0 0
0.368627 0 0
0.568627 0 0
0.556863 0 0
0.988235 0 0
0.988235 0 0
1 0 0
0.956863 0 0
0.960784 0 0
0.929412 0 0
1 0 0
1 0 0
1 0 0
1 0 0
1 0 0
0.994797 0 0
1 0 0
1 0 0
1 0 0
1 0 0
1 0 0
1 0 0
1 0 0
1 0 0
1 0 0
1 0 0
1 0 0
1 0 0
1 0 0
1 0 0
1 0 0
0 0.104082 0
0.104143 0.104143 0
0.0901961 0.104143 0
0.368627 0.104204 0
0.568627 0.104173 0
0.556863 0.104311 7.62951e-05
0.988235 0.104143 0
0.988235 0.10428 1.5259e-05
1 0.104158 0
0.956863 0.10428 0
0.960784 0.104372 7.62951e-05
0.929412 0.104265 0
1 0.104402 7.62951e-05
1 0.104234 0
1 0.104372 1.5259e-05
1 0.10425 0
1 0.104387 1.5259e-05
0.995087 0.104265 0
1 0.104204 0
1 0.104265 0
1 0.104097 0
1 0.104158 0
1 0.103975 0
1 0.104051 0
1 0.10399 0
1 0.103929 0
1 0.104005 0
1 0.103822 0
1 0.103883 0
1 0.103716 0
1 0.103777 0
1 0.103593 0
1 0.103655 0
0 0.647059 0
0.104067 0.647059 0
0.0901961 0.647059 0
0.368627 0.647059 0
0.568627 0.647059 0
0.556863 0.647059 0
0.988235 0.647059 0
0.988235 0.647059 0
1 0.647059 0
0.956863 0.647059 0
0.960784 0.647059 0
0.929412 0.647059 0
1 0.647059 0
1 0.647059 0
1 0.647059 0
1 0.647059 0
1 0.647059 0
0.995163 0.647059 0
1 0.647059 0
1 0.647059 0
1 0.647059 0
1 0.647059 0
1 0.647059 0
1 0.647059 0
1 0.647059 0
1 0.647059 0
1 0.647059 0
1 0.647059 0
1 0.647059 0
1 0.647059 0
1 0.647059 0
1 0.647059 0
1 0.647059 0
0 0.733333 0
0.104097 0.733333 0
0.0901961 0.733333 0
0.368627 0.733333 0
0.568627 0.733333 6.10361e-05
0.556863 0.733333 0
0.988235 0.733333 0
0.988235 0.733333 0
1 0.733333 0
0.956863 0.733333 0
0.960784 0.733333 0
0.929412 0.733333 0
1 0.733333 0
1 0.733333 0
1 0.733333 0
1 0.733333 0
1 0.733333 0
0.995193 0.733333 0
1 0.733333 0
1 0.733333 0
1 0.733333 0
1 0.733333 0
1 0.733333 0
1 0.733333 0
1 0.733333 0
1 0.733333 0
1 0.733333 0
1 0.733333 0
1 0.733333 0
1 0.733333 0
1 0.733333 0
1 0.733333 0
1 0.733333 0
0 0.784314 0
0.104372 0.784314 9.15541e-05
0.0901961 0.784314 7.62951e-05
0.368627 0.784314 0
0.568627 0.784314 6.10361e-05
0.556863 0.784314 0
0.988235 0.784314 1.5259e-05
0.988235 0.784314 0
1 0.784314 0
0.956863 0.784314 0.000106813
0.960784 0.784314 0
0.929412 0.784314 6.10361e-05
1 0.784314 0
1 0.784314 0
1 0.784314 0
1 0.784314 0
1 0.784314 1.5259e-05
0.995224 0.784314 0
1 0.784314 0
1 0.784314 0
1 0.784314 0
1 0.784314 0
1 0.784314 0
1 0.784314 0
1 0.784314 0
1 0.784314 0
1 0.784314 0
1 0.784314 0
1 0.784314 0
1 0.784314 0
1 0.784314 0
1 0.784314 0
1 0.784314 0
0 0.556863 0
0.104402 0.556863 9.15541e-05
0.0901961 0.556863 7.62951e-05
0.368627 0.556863 0
0.568627 0.556863 7.62951e-05
0.556863 0.556863 0
0.988235 0.556863 0
0.988235 0.556863 0.000137331
1 0.556863 0
0.956863 0.556863 0.000106813
0.960784 0.556863 0
0.929412 0.556863 6.10361e-05
1 0.556863 0
1 0.556863 0
1 0.556863 0.000137331
1 0.556863 0
1 0.556863 0.000122072
0.995254 0.556863 0
1 0.556863 0
1 0.556863 0
1 0.556863 0
1 0.556863 0
1 0.556863 0
1 0.556863 0
1 0.556863 0
1 0.556863 0
1 0.556863 0
1 0.556863 0
1 0.556863 0
1 0.556863 0
1 0.556863 0
1 0.556863 0
1 0.556863 0
0 0.898039 0
0.10425 0.898039 0
0.0901961 0.898039 0
0.368627 0.898039 0
0.568627 0.898039 0
0.556863 0.898039 1.5259e-05
0.988235 0.898039 0
0.988235 0.898039 0
1 0.898039 0
0.956863 0.898039 0
0.960784 0.898039 0
0.929412 0.898039 0
1 0.898039 1.5259e-05
1 0.898039 0
1 0.898039 0
1 0.898039 0
1 0.898039 0
0.995178 0.898039 0
1 0.898039 0
1 0.898039 0
1 0.898039 0
1 0.898039 0
1 0.898039 0
1 0.898039 0
1 0.898039 0
1 0.898039 0
1 0.898039 0
1 0.898039 0
1 0.898039 0
1 0.898039 0
1 0.898039 0
1 0.898039 0
1 0.898039 0
0 0.898039 0
0.104265 0.898039 0
0.0901961 0.898039 0
0.368627 0.898039 1.5259e-05
0.568627 0.898039 0
0.556863 0.898039 1.5259e-05
0.988235 0.898039 0
0.988235 0.898039 0
1 0.898039 4.57771e-05
0.956863 0.898039 0
0.960784 0.898039 1.5259e-05
0.929412 0.898039 0
1 0.898039 1.5259e-05
1 0.898039 0
1 0.898039 0
1 0.898039 0
1 0.898039 0
0.995407 0.898039 3.0518e-05
1 0.898039 0
1 0.898039 0
1 0.898039 0
1 0.898039 0
1 0.898039 0
1 0.898039 0
1 0.898039 0
1 0.898039 0
1 0.898039 0
1 0.898039 0
1 0.898039 0
1 0.898039 0
1 0.898039 0
1 0.898039 0
1 0.898039 0
0 0.972549 0
0.104295 0.972549 0
0.0901961 0.972549 0
0.368627 0.972549 1.5259e-05
0.568627 0.972549 0
0.556863 0.972549 1.5259e-05
0.988235 0.972549 3.0518e-05
0.988235 0.972549 0
1 0.972549 7.62951e-05
0.956863 0.972549 0
0.960784 0.972549 1.5259e-05
0.929412 0.972549 0
1 0.972549 1.5259e-05
1 0.972549 7.62951e-05
1 0.972549 0
1 0.972549 7.62951e-05
1 0.972549 0
0.995438 0.972549 3.0518e-05
1 0.972549 0
1 0.972549 0
1 0.972549 0
1 0.972549 0
1 0.972549 0
1 0.972549 0
1 0.972549 0
1 0.972549 0
1 0.972549 0
1 0.972549 0
1 0.972549 0
1 0.972549 0
1 0.972549 0
1 0.972549 0
1 0.972549 0
0 0.443137 0
0.104509 0.443137 0.000122072
0.0901961 0.443137 4.57771e-05
0.368627 0.443137 0
0.568627 0.443137 0.000122072
0.556863 0.443137 0
0.988235 0.443137 6.10361e-05
0.988235 0.443137 0
1 0.443137 6.10361e-05
0.956863 0.443137 7.62951e-05
0.960784 0.443137 0
0.929412 0.443137 0.000122072
1 0.443137 0
1 0.443137 7.62951e-05
1 0.443137 0
1 0.443137 7.62951e-05
1 0.443137 0
0.995483 0.443137 3.0518e-05
1 0.443137 0
1 0.443137 0
1 0.443137 0
1 0.443137 0
1 0.443137 0
1 0.443137 0
1 0.443137 0
1 0.443137 0
1 0.443137 0
1 0.443137 0
1 0.443137 0
1 0.443137 0
1 0.443137 0
1 0.443137 0
1 0.443137 0
0 0.65098 0
0.104402 0.65098 0
0.0901961 0.65098 0
0.368627 0.65098 0
0.568627 0.65098 0
0.556863 0.65098 0
0.988235 0.65098 0
0.988235 0.65098 0
1 0.65098 0
0.956863 0.65098 1.5259e-05
0.960784 0.65098 0
0.929412 0.65098 0
1 0.65098 0
1 0.65098 0
1 0.65098 0
1 0.65098 0
1 0.65098 3.0518e-05
0.995346 0.65098 0
1 0.65098 0
1 0.65098 0
1 0.65098 0
1 0.65098 0
1 0.65098 0
1 0.65098 0
1 0.65098 0
1 0.65098 0
1 0.65098 0
1 0.65098 0
1 0.65098 0
1 0.65098 0
1 0.65098 0
1 0.65098 0
1 0.65098 0
0 0.113725 0
0.104417 0.113725 0
0.0901961 0.113725 0
0.368627 0.113725 0
0.568627 0.113725 0
0.556863 0.113725 9.15541e-05
0.988235 0.113725 0
0.988235 0.113725 3.0518e-05
1 0.113725 0
0.956863 0.113725 3.0518e-05
0.960784 0.113725 0
0.929412 0.113725 0
1 0.113725 0
1 0.113725 0
1 0.113725 3.0518e-05
1 0.113725 0
1 0.113725 3.0518e-05
0.995377 0.113725 0
1 0.113725 0
1 0.113725 0
1 0.113725 0
1 0.113725 0
1 0.113725 0
1 0.113725 0
1 0.113725 0
1 0.113725 0
1 0.113725 0
1 0.113725 0
1 0.113725 0
1 0.113725 0
1 0.113725 0
1 0.113725 0
1 0.113725 0
0 0 0
0.104433 0 0
0.0901961 0 0
0.368627 0 9.15541e-05
0.568627 0 0
0.556863 0 9.15541e-05
0.988235 0 0
0.988235 0 3.0518e-05
1 0 0
0.956863 0 3.0518e-05
0.960784 0 9.15541e-05
0.929412 0 0
1 0 9.15541e-05
1 0 0
1 0 3.0518e-05
1 0 0
1 0 3.0518e-05
0.995621 0 6.10361e-05
1 0 0
1 0 0
1 0 0
1 0 0
1 0 0
1 0 0
1 0 0
1 0 0
1 0 0
1 0 0
1 0 0
1 0 0
1 0 0
1 0 0
1 0 0
0 0 0
0.10428 0 0
0.0901961 0 0
0.368627 0 0
0.568627 0 0
0.556863 0 0
0.988235 0 0
0.988235 0 0
1 0 1.5259e-05
0.956863 0 0
0.960784 0 0
0.929412 0 0
1 0 0
1 0 0
1 0 0
1 0 3.0518e-05
1 0 0
0.995575 0 0
1 0 0
1 0 0
1 0 0
1 0 0
1 0 0
1 0 0
1 0 0
1 0 0
1 0 0
1 0 0
1 0 0
1 0 0
1 0 0
1 0 0
1 0 0
0 0 0
0.104311 0 0
0.0901961 0 0
0.368627 0 0
0.568627 0 1.5259e-05
0.556863 0 0
0.988235 0 0
0.988235 0 0
1 0 0
0.956863 0 0
0.960784 0 0
0.929412 0 0
1 0 0
1 0 0
1 0 0
1 0 0
1 0 0
0.995575 0 0
1 0 0
1 0 0
1 0 0
1 0 0
1 0 0
1 0 0
1 0 0
1 0 0
1 0 0
1 0 0
1 0 0
1 0 0
1 0 0
1 0 0
1 0 0
0 0 0
0.10454 0 7.62951e-05
0.0901961 0 4.57771e-05
0.368627 0 0
0.568627 0 4.57771e-05
0.556863 0 0
0.988235 0 0
0.988235 0 0
1 0 0
0.956863 0 0.000106813
0.960784 0 0
0.929412 0 4.57771e-05
1 0 0
1 0 0
1 0 0
1 0 0
1 0 0
0.995605 0 0
1 0 0
1 0 0
1 0 0
1 0 0
1 0 0
1 0 0
1 0 0
1 0 0
1 0 0
1 0 0
1 0 0
1 0 0
1 0 0
1 0 0
1 0 0
0 0 0
0.104555 0 7.62951e-05
0.0901961 0 6.10361e-05
0.368627 0 0
0.568627 0 4.57771e-05
0.556863 0 4.57771e-05
0.988235 0 0
0.988235 0 7.62951e-05
1 0 0
0.956863 0 0.000106813
0.960784 0 0
0.929412 0 4.57771e-05
1 0 0
1 0 0
1 0 0.000106813
1 0 0
1 0 0.000106813
0.995636 0 0
1 0 0
1 0 0
1 0 0
1 0 0
1 0 0
1 0 0
1 0 0
1 0 0
1 0 0
1 0 0
1 0 0
1 0 0
1 0 0
1 0 0
1 0 0
0 0.99556 0
0.104479 0.995636 0
0.0901961 0.995605 0
0.368627 0.99556 0
0.568627 0.99559 0
0.556863 0.995727 9.15541e-05
0.988235 0.99556 0
0.988235 0.995682 3.0518e-05
1 0.99556 0
0.956863 0.995697 3.0518e-05
0.960784 0.995666 1.5259e-05
0.929412 0.995636 0
1 0.995789 0.000106813
1 0.995636 0
1 0.995727 4.57771e-05
1 0.995636 0
1 0.995758 4.57771e-05
0.995621 0.995621 0
1 0.995575 0
1 0.995651 0
1 0.995483 0
1 0.99556 0
1 0.995392 0
1 0.995453 0
1 0.995895 0.000106813
1 0.995911 0.000106813
1 0.995926 0.000106813
1 0.995941 0.000106813
1 0.995941 0.000106813
1 0.995972 0.000122072
1 0.995972 0.000122072
1 0.995987 0.000122072
1 0.996002 0.000122072
0 1 0
0.103944 1 0
0.0901961 1 0
0.368627 1 0
0.568627 1 0
0.556863 1 0
0.988235 1 0
0.988235 1 0
1 1 0
0.956863 1 0
0.960784 1 0
0.929412 1 0
1 1 0
1 1 0
1 1 0
1 1 0
1 1 0
0.995331 1 0
1 1 0
1 1 0
1 1 0
1 1 0
1 1 0
1 1 0
1 1 0
1 1 0
1 1 0
1 1 0
1 1 0
1 1 0
1 1 0
1 1 0
1 1 0
0 1 0
0.103746 1 0
0.0901961 1 0
0.368627 1 0
0.568627 1 0
0.556863 1 0
0.988235 1 0
0.988235 1 0
1 1 0
0.956863 1 0
0.960784 1 0
0.929412 1 0
1 1 0
1 1 0
1 1 0
1 1 0
1 1 0
0.995605 1 0
1 1 0
1 1 0
1 1 0
1 1 0
1 1 0
1 1 0
1 1 0
1 1 0
1 1 0
1 1 0
1 1 0
1 1 0
1 1 0
1 1 0
1 1 0
0 1 0
0.103685 1 0
0.0901961 1 0
0.368627 1 0
0.568627 1 0
0.556863 1 0
0.988235 1 0
0.988235 1 0
1 1 0
0.956863 1 0
0.960784 1 0
0.929412 1 0
1 1 0
1 1 0
1 1 0
1 1 0
1 1 0
0.995636 1 0
1 1 0
1 1 0
1 1 0
1 1 0
1 1 0
1 1 0
1 1 0
1 1 0
1 1 0
1 1 0
1 1 0
1 1 0
1 1 0
1 1 0
1 1 0
0 1 0
0.103609 1 0
0.0901961 1 0
0.368627 1 0
0.568627 1 0
0.556863 1 0
0.988235 1 0
0.988235 1 0
1 1 0
0.956863 1 0
0.960784 1 0
0.929412 1 0
1 1 0
1 1 0
1 1 0
1 1 0
1 1 0
0.995666 1 0
1 1 0
1 1 0
1 1 0
1 1 0
1 1 0
1 1 0
1 1 0
1 1 0
1 1 0
1 1 0
1 1 0
1 1 0
1 1 0
1 1 0
1 1 0
0 1 0
0.103426 1 0
0.0901961 1 0
0.368627 1 0
0.568627 1 0
0.556863 1 0
0.988235 1 0
0.988235 1 0
1 1 0
0.956863 1 0
0.960784 1 0
0.929412 1 0
1 1 0
1 1 0
1 1 0
1 1 0
1 1 0
0.995697 1 0
1 1 0
1 1 0
1 1 0
1 1 0
1 1 0
1 1 0
1 1 0
1 1 0
1 1 0
1 1 0
1 1 0
1 1 0
1 1 0
1 1 0
1 1 0
0 1 0
0.103227 1 0
0.0901961 1 0
0.368627 1 0
0.568627 1 0
0.556863 1 0
0.988235 1 0
0.988235 1 0
1 1 0
0.956863 1 0
0.960784 1 0
0.929412 1 0
1 1 0
1 1 0
1 1 0
1 1 0
1 1 0
0.995743 1 0
1 1 0
1 1 0
1 1 0
1 1 0
1 1 0
1 1 0
1 1 0
1 1 0
1 1 0
1 1 0
1 1 0
1 1 0
1 1 0
1 1 0
1 1 0
0 1 0
0.103593 1 0
0.0901961 1 0
0.368627 1 0
0.568627 1 0
0.556863 1 0
0.988235 1 0
0.988235 1 0
1 1 0
0.956863 1 0
0.960784 1 0
0.929412 1 0
1 1 0
1 1 0
1 1 0
1 1 0
1 1 0
0.995758 1 0
1 1 0
1 1 0
1 1 0
1 1 0
1 1 0
1 1 0
1 1 0
1 1 0
1 1 0
1 1 0
1 1 0
1 1 0
1 1 0
1 1 0
1 1 0
0 1 0
0.103609 1 0
0.0901961 1 0
0.368627 1 0
0.568627 1 0
0.556863 1 0
0.988235 1 0
0.988235 1 0
1 1 0
0.956863 1 0
0.960784 1 0
0.929412 1 0
1 1 0
1 1 0
1 1 0
1 1 0
1 1 0
0.995789 1 0
1 1 0
1 1 0
1 1 0
1 1 0
1 1 0
1 1 0
1 1 0
1 1 0
1 1 0
1 1 0
1 1 0
1 1 0
1 1 0
1 1 0
1 1 0
0 1 0
0.103609 1 0
0.0901961 1 0
0.368627 1 0
0.568627 1 0
0.556863 1 0
0.988235 1 0
0.988235 1 0
1 1 0
0.956863 1 0
0.960784 1 0
0.929412 1 0
1 1 0
1 1 0
1 1 0
1 1 0
1 1 0
0.995819 1 0
1 1 0
1 1 0
1 1 0
1 1 0
1 1 0
1 1 0
1 1 0
1 1 0
1 1 0
1 1 0
1 1 0
1 1 0
1 1 0
1 1 0
1 1 0
0 1 0
0.103624 1 0
0.0901961 1 0
0.368627 1 0
0.568627 1 0
0.556863 1 0
0.988235 1 0
0.988235 1 0
1 1 0
