NikonZR_ELZONE_V2.cube
TITLE "Generated by Resolve & Made by Kouraku"
LUT_3D_SIZE 9
0.392386 0.283665 0.597864
0.392996 0.284138 0.598718
0.393606 0.284627 0.599603
0.628061 0.498314 0.727459
0.172625 0.674571 0.890959
0.103716 0.658747 0.29839
0.353399 0.718395 0.276524
0.354482 0.720348 0.277424
0.574456 0.785916 0.250416
0.393927 0.284871 0.600061
0.628672 0.498817 0.728145
0.172869 0.675273 0.891859
0.10222 0.653178 0.295476
0.35375 0.71902 0.276814
0.354788 0.720897 0.277668
0.574807 0.786374 0.250599
0.471336 0.471336 0.471336
0.984222 0.891157 0.0111238
0.17319 0.676188 0.893034
0.101442 0.650233 0.293935
0.354208 0.719844 0.277195
0.355215 0.72166 0.278019
0.575265 0.786969 0.250843
0.471748 0.471748 0.471748
0.984771 0.891646 0.0111391
1 0.96025 0.64416
1 0.961151 0.644816
0.102647 0.65478 0.296315
0.355749 0.722637 0.278477
0.575784 0.787655 0.251102
0.472297 0.472297 0.472297
0.985428 0.892241 0.0111543
1 0.960678 0.644465
1 0.961578 0.64509
0.960525 0.444022 0.166796
0.962127 0.444831 0.167193
0.57641 0.788479 0.251438
0.472984 0.472984 0.472984
0.98616 0.892927 0.0111696
1 0.961166 0.644785
1 0.962051 0.645411
0.961227 0.444373 0.166979
0.962798 0.445182 0.167376
0.945907 0.636667 0.279011
0.94754 0.637827 0.279606
0.986999 0.89369 0.0111849
1 0.961685 0.645136
1 0.962554 0.645747
0.962051 0.4448 0.167178
0.963592 0.445579 0.167559
0.946654 0.637201 0.279286
0.948272 0.638331 0.279866
0.919936 0.119677 0.150652
0.871092 0.484428 0.547768
1 0.963104 0.646113
0.962997 0.445274 0.167422
0.964492 0.446052 0.167788
0.947555 0.637827 0.279606
0.949111 0.638926 0.280171
0.920928 0.119875 0.150881
0.871962 0.484947 0.548348
0.873823 0.486061 0.549584
0.93843 0.739132 0.742138
0.965515 0.446571 0.168048
0.948562 0.638544 0.279973
0.950103 0.639612 0.280537
0.922118 0.120134 0.151171
0.872999 0.485573 0.549035
0.8748 0.486656 0.550225
0.939025 0.739605 0.742626
0.940185 0.740536 0.743557
0.941344 0.741482 0.744503
0.951186 0.640391 0.280934
0.923491 0.120439 0.151522
0.925338 0.120836 0.151965
0.875959 0.487343 0.551003
0.939681 0.740124 0.74316
0.940826 0.741054 0.744076
0.94197 0.74197 0.745007
0.943099 0.742901 0.745937
0.944274 0.743832 0.746868
0.392981 0.284138 0.598718
0.393606 0.284611 0.599588
0.394217 0.2851 0.600473
0.0848249 0.442618 0.640269
0.173205 0.676204 0.89305
0.103914 0.65948 0.298787
0.35436 0.720119 0.277317
0.57435 0.785763 0.25037
0.470863 0.470863 0.470863
0.394537 0.285344 0.600931
0.0833448 0.438254 0.634318
0.173449 0.676905 0.89395
0.102419 0.653925 0.295872
0.354711 0.72076 0.277607
0.574731 0.786267 0.250568
0.471183 0.471183 0.471183
0.472465 0.472465 0.472465
0.985565 0.892378 0.0111543
0.17377 0.677821 0.895109
0.101747 0.651377 0.29453
0.355169 0.721584 0.277989
0.356176 0.723384 0.278828
0.471656 0.471656 0.471656
0.472877 0.472877 0.472877
0.986114 0.892882 0.0111696
1 0.961105 0.644816
1 0.962005 0.645457
0.355749 0.722622 0.278477
0.356695 0.724346 0.279255
0.472251 0.472251 0.472251
0.473442 0.473442 0.473442
0.986755 0.893462 0.0111849
1 0.961547 0.645106
1 0.962432 0.645747
0.962005 0.44477 0.167163
0.945083 0.636088 0.278721
0.472984 0.472984 0.472984
0.474113 0.474113 0.474113
0.987503 0.894148 0.0112001
1 0.962036 0.645441
1 0.962905 0.646052
0.962707 0.445136 0.167346
0.945769 0.636576 0.278965
0.947402 0.63772 0.279561
0.918883 0.119448 0.150393
0.988342 0.894926 0.0112154
1 0.962539 0.645777
1 0.963409 0.646403
0.963531 0.445548 0.167559
0.946563 0.63714 0.279255
0.948165 0.638254 0.279835
0.919753 0.119631 0.150591
0.921752 0.120058 0.151095
0.872786 0.485435 0.548882
1 0.963958 0.646769
0.964462 0.446036 0.167788
0.947509 0.637797 0.279591
0.949065 0.638895 0.280156
0.92079 0.11986 0.150851
0.922744 0.120272 0.151339
0.873655 0.485969 0.549462
0.875502 0.487068 0.550698
0.939529 0.740001 0.743023
0.96698 0.447318 0.168414
0.950072 0.639597 0.280522
0.922057 0.120119 0.151156
0.923934 0.120531 0.151629
0.874693 0.48658 0.550149
0.876478 0.487663 0.551354
0.940124 0.74049 0.743511
0.941268 0.741405 0.744442
0.942428 0.742351 0.745388
0.923491 0.120439 0.151522
0.925307 0.120821 0.151965
0.875914 0.487327 0.550973
0.877638 0.488365 0.552117
0.940764 0.741009 0.744045
0.941909 0.741924 0.744961
0.943038 0.74284 0.745876
0.944183 0.74377 0.746807
0.945342 0.744701 0.747753
0.393606 0.284627 0.599588
0.394217 0.2851 0.600473
0.394842 0.285588 0.601343
0.0850233 0.443214 0.641093
0.103075 0.656382 0.297154
0.104112 0.660227 0.299168
0.355337 0.721889 0.278126
0.575372 0.787121 0.250889
0.472007 0.472007 0.472007
0.395163 0.285832 0.601801
0.0846876 0.442252 0.639765
0.101839 0.651759 0.294743
0.102632 0.654688 0.296269
0.355688 0.722515 0.278416
0.575753 0.787625 0.251102
0.472343 0.472343 0.472343
0.473625 0.473625 0.473625
1 0.960647 0.644556
0.101961 0.652186 0.294957
0.102068 0.652613 0.295186
0.356146 0.723339 0.278798
0.576242 0.788251 0.251347
0.472816 0.472816 0.472816
0.474037 0.474037 0.474037
1 0.961059 0.644831
1 0.961959 0.645472
0.961273 0.444389 0.166979
0.356725 0.724392 0.279286
0.576791 0.788983 0.251637
0.473411 0.473411 0.473411
0.474586 0.474586 0.474586
1 0.961517 0.645136
1 0.962402 0.645762
0.961898 0.444724 0.167147
0.963485 0.445533 0.167544
0.946609 0.637171 0.279271
0.474144 0.474144 0.474144
0.475273 0.475273 0.475273
1 0.96202 0.645472
1 0.96289 0.646097
0.962631 0.44509 0.16733
0.964187 0.445899 0.167712
0.947295 0.637644 0.279515
0.948913 0.638788 0.28011
0.920745 0.119844 0.150835
0.9897 0.896147 0.0112459
1 0.963409 0.646433
0.9635 0.445548 0.167544
0.965011 0.446311 0.167926
0.948089 0.638209 0.279805
0.949691 0.639323 0.280385
0.921599 0.120027 0.151049
0.923598 0.120455 0.151537
0.874495 0.486473 0.550027
0.964477 0.446036 0.167788
0.965957 0.446799 0.168154
0.949035 0.63888 0.28014
0.950576 0.639948 0.280705
0.922652 0.120256 0.151308
0.92459 0.120668 0.151781
0.875364 0.486992 0.550607
0.939452 0.739956 0.742977
0.940627 0.740887 0.743923
0.950088 0.639612 0.280522
0.951598 0.640665 0.281071
0.923903 0.120516 0.151614
0.925765 0.120928 0.152071
0.876402 0.487617 0.551293
0.878187 0.488701 0.552499
0.941207 0.74136 0.744396
0.942367 0.74229 0.745327
0.943526 0.743236 0.746273
0.925338 0.120836 0.151965
0.927153 0.121218 0.152407
0.877623 0.48835 0.552117
0.879347 0.489387 0.553262
0.941878 0.741894 0.74493
0.943008 0.742809 0.745846
0.944137 0.743725 0.746761
0.945281 0.744656 0.747692
0.946441 0.745586 0.748638
0.394232 0.2851 0.600488
0.394842 0.285588 0.601343
0.630533 0.500343 0.730266
0.17377 0.677806 0.895109
0.103288 0.657145 0.297566
0.355276 0.721767 0.27808
0.356329 0.723674 0.27895
0.471901 0.471901 0.471901
0.473182 0.473182 0.473182
0.631189 0.500877 0.730999
0.174029 0.678569 0.896086
0.103182 0.656779 0.297368
0.355657 0.722469 0.278401
0.356664 0.7243 0.27924
0.472282 0.472282 0.472282
0.473518 0.473518 0.473518
0.986847 0.893553 0.0111849
1 0.961517 0.645228
0.103304 0.657206 0.297597
0.356161 0.723369 0.278813
0.357137 0.725139 0.279622
0.577279 0.789609 0.251881
0.473991 0.473991 0.473991
0.987427 0.894072 0.0112001
1 0.961929 0.645502
1 0.962829 0.646143
0.962768 0.445167 0.167361
0.357702 0.726162 0.280095
0.577829 0.790341 0.252171
0.474586 0.474586 0.474586
0.988098 0.894697 0.0112154
1 0.962386 0.645792
1 0.963272 0.646433
0.963409 0.445487 0.167514
0.964981 0.446296 0.16791
0.94815 0.638254 0.279835
0.475303 0.475303 0.475303
0.988876 0.895399 0.0112306
1 0.96289 0.646128
1 0.96376 0.646754
0.964141 0.445869 0.167712
0.965698 0.446662 0.168093
0.948837 0.638727 0.280079
0.920577 0.119814 0.150805
0.922621 0.120241 0.151293
1 0.963424 0.646494
1 0.964279 0.647105
0.965011 0.446311 0.167926
0.966506 0.447089 0.168307
0.94963 0.639292 0.280369
0.921492 0.120012 0.151034
0.923461 0.120424 0.151507
0.874342 0.486381 0.549935
0.876234 0.487511 0.551186
0.965988 0.446815 0.16817
0.967468 0.447562 0.168536
0.950576 0.639963 0.280705
0.952102 0.641032 0.281254
0.924529 0.120653 0.151766
0.875273 0.486946 0.550546
0.877089 0.488029 0.551751
0.940566 0.740841 0.743877
0.941741 0.741787 0.744823
0.951629 0.640696 0.281086
0.953124 0.641749 0.281621
0.925765 0.120928 0.152071
0.876371 0.487602 0.551278
0.878141 0.488655 0.552453
0.941192 0.741344 0.744366
0.942321 0.74226 0.745296
0.943465 0.743191 0.746227
0.944625 0.744121 0.747173
0.927214 0.121233 0.152422
0.877653 0.488365 0.552132
0.879347 0.489387 0.553262
0.941863 0.741894 0.744915
0.942977 0.742794 0.74583
0.944106 0.743709 0.746746
0.945235 0.744625 0.747662
0.94638 0.745541 0.748592
0.94754 0.746471 0.749523
0.394858 0.285603 0.601373
0.395468 0.286076 0.602243
0.0871901 0.449607 0.649805
0.174365 0.6795 0.897276
0.104417 0.661402 0.299794
0.356283 0.723583 0.278904
0.576364 0.788403 0.251408
0.473075 0.473075 0.473075
0.474372 0.474372 0.474372
0.0872969 0.449928 0.650248
0.17464 0.680278 0.898268
0.104524 0.661799 0.300008
0.356664 0.724285 0.27924
0.576776 0.788952 0.251621
0.473472 0.473472 0.473472
0.474708 0.474708 0.474708
0.988205 0.894804 0.0112154
1 0.962386 0.645884
0.104646 0.662211 0.300221
0.357168 0.725185 0.279652
0.577279 0.789624 0.251881
0.473976 0.473976 0.473976
0.475166 0.475166 0.475166
0.9888 0.895338 0.0112306
1 0.962814 0.646159
0.962692 0.445121 0.167346
0.964294 0.445945 0.167742
0.577859 0.790387 0.252186
0.474617 0.474617 0.474617
0.475776 0.475776 0.475776
0.989471 0.895949 0.0112459
1 0.963256 0.646464
0.963363 0.445472 0.167514
0.96492 0.446265 0.167895
0.948058 0.638178 0.279789
0.949706 0.639338 0.280385
0.476493 0.476493 0.476493
0.99025 0.896666 0.0112612
1 0.96376 0.646799
0.964141 0.445869 0.167697
0.965667 0.446647 0.168093
0.948791 0.638697 0.280064
0.950393 0.639826 0.280644
0.922469 0.120211 0.151263
0.924514 0.120653 0.151766
1 0.964294 0.64715
1 0.965148 0.647761
0.966537 0.447089 0.168307
0.94963 0.639292 0.280354
0.951186 0.640391 0.280934
0.9234 0.120409 0.151492
0.925353 0.120836 0.15198
0.876112 0.487434 0.55111
0.877989 0.488563 0.552361
0.967514 0.447593 0.168551
0.950607 0.639979 0.28072
0.952117 0.641047 0.28127
0.924514 0.120653 0.151766
0.926421 0.121065 0.152239
0.877043 0.487999 0.55172
0.878843 0.489082 0.552926
0.94168 0.741756 0.744778
0.942855 0.742687 0.745724
0.953185 0.641794 0.281651
0.925841 0.120943 0.152087
0.927657 0.121324 0.152544
0.878126 0.488655 0.552453
0.879881 0.489708 0.553628
0.94229 0.742245 0.745281
0.943435 0.74316 0.746197
0.944579 0.744091 0.747127
0.945739 0.745022 0.748074
0.929107 0.121645 0.152895
0.879408 0.489433 0.553307
0.881102 0.49044 0.554437
0.942977 0.742794 0.74583
0.944091 0.743694 0.746731
0.945205 0.744595 0.747631
0.946349 0.74551 0.748562
0.947494 0.746441 0.749493
0.948638 0.747372 0.750408
0.395499 0.286091 0.602274
0.631861 0.501427 0.731762
0.17438 0.679545 0.897337
0.105653 0.66601 0.30222
0.105776 0.666438 0.302434
0.35729 0.725429 0.279759
0.577417 0.789792 0.251957
0.474281 0.474281 0.474281
0.987655 0.894286 0.0112001
0.17467 0.680385 0.898405
0.10576 0.666423 0.302419
0.105882 0.66685 0.302647
0.357687 0.726116 0.280079
0.577829 0.790341 0.252171
0.474678 0.474678 0.474678
0.988174 0.894774 0.0112154
1 0.962356 0.645914
1 0.963272 0.646555
0.105989 0.667247 0.302861
0.35819 0.727031 0.280491
0.578332 0.791012 0.25243
0.475181 0.475181 0.475181
0.988785 0.895323 0.0112306
1 0.962798 0.646204
1 0.963684 0.64683
0.964218 0.445914 0.167727
0.965835 0.446738 0.168124
0.578912 0.791775 0.252735
0.475822 0.475822 0.475822
0.989502 0.895979 0.0112459
1 0.963256 0.64651
1 0.964141 0.647135
0.964889 0.44625 0.167895
0.966445 0.447044 0.168276
0.94963 0.639292 0.280369
0.951278 0.640452 0.280964
0.477699 0.477699 0.477699
1 0.963775 0.64686
1 0.964645 0.647471
0.965682 0.446647 0.168093
0.967208 0.44744 0.168475
0.950362 0.639811 0.280629
0.951949 0.640925 0.281209
0.924407 0.120623 0.151736
0.875257 0.486931 0.55053
1 0.965164 0.647822
0.966583 0.44712 0.168322
0.968063 0.447868 0.168688
0.951202 0.640391 0.280934
0.952758 0.641489 0.281498
0.925338 0.120836 0.151965
0.927275 0.121248 0.152438
0.877897 0.488518 0.5523
0.9411 0.741268 0.744305
0.969039 0.448386 0.168933
0.952178 0.641093 0.281285
0.953689 0.642145 0.281834
0.926452 0.121065 0.152239
0.928344 0.121477 0.152697
0.878813 0.489067 0.552911
0.941665 0.741726 0.744762
0.942809 0.742657 0.745693
0.943969 0.743603 0.746639
0.954742 0.642893 0.282216
0.927764 0.121355 0.15256
0.92958 0.121736 0.153002
0.879911 0.489723 0.553643
0.94229 0.742245 0.745281
0.94342 0.743145 0.746181
0.944549 0.744076 0.747112
0.945708 0.744991 0.748043
0.946853 0.745922 0.748974
0.931029 0.122057 0.153368
0.881178 0.490486 0.554482
0.942992 0.742809 0.74583
0.944106 0.743694 0.746731
0.94522 0.744595 0.747646
0.946334 0.74551 0.748547
0.947463 0.746426 0.749462
0.948608 0.747341 0.750393
0.949752 0.748257 0.751308
0.396124 0.28658 0.603174
0.0898299 0.457359 0.660395
0.17499 0.6813 0.89958
0.107012 0.671077 0.30486
0.357305 0.725429 0.279759
0.358328 0.727291 0.280613
0.47425 0.47425 0.47425
0.475502 0.475502 0.475502
0.989059 0.895567 0.0112306
0.17528 0.682139 0.900649
0.107118 0.671473 0.305074
0.357733 0.726207 0.28011
0.358709 0.727977 0.280934
0.474678 0.474678 0.474678
0.475898 0.475898 0.475898
0.989578 0.896056 0.0112459
1 0.963241 0.646586
1 0.964141 0.647227
0.358267 0.727169 0.280552
0.359213 0.728893 0.281346
0.475242 0.475242 0.475242
0.476402 0.476402 0.476402
0.990204 0.89662 0.0112612
1 0.963684 0.646876
1 0.964569 0.647501
0.965774 0.446708 0.168109
0.948974 0.638819 0.280125
0.475914 0.475914 0.475914
0.477043 0.477043 0.477043
0.990906 0.897261 0.0112764
1 0.964141 0.647181
1 0.965026 0.647807
0.966445 0.447044 0.168276
0.949599 0.639261 0.280354
0.951217 0.640406 0.280934
0.923568 0.120455 0.151537
0.991714 0.897993 0.0112917
1 0.96466 0.647532
1 0.965515 0.648142
0.967224 0.447456 0.168475
0.950362 0.639811 0.280629
0.951934 0.640925 0.281193
0.924346 0.120623 0.15172
0.926345 0.12105 0.152209
0.877058 0.488014 0.551736
1 0.966049 0.648493
0.968139 0.447913 0.168704
0.969604 0.448661 0.16907
0.952789 0.64152 0.281498
0.925353 0.120836 0.151965
0.92726 0.121248 0.152438
0.877852 0.488487 0.55227
0.879683 0.489601 0.553491
0.942229 0.742184 0.74522
0.970596 0.449165 0.169329
0.953765 0.642206 0.281865
0.926528 0.12108 0.152255
0.928389 0.121492 0.152712
0.878843 0.489082 0.552926
0.880598 0.49015 0.554101
0.942794 0.742641 0.745678
0.943938 0.743572 0.746609
0.945098 0.744503 0.747539
0.927901 0.121386 0.15259
0.929686 0.121767 0.153033
0.879988 0.489769 0.553689
0.881712 0.490806 0.554833
0.943435 0.74316 0.746197
0.944549 0.74406 0.747097
0.945678 0.744976 0.748028
0.946838 0.745907 0.748943
0.947967 0.746822 0.749874
0.881315 0.490578 0.554574
0.882979 0.491569 0.555673
0.944121 0.743725 0.746761
0.945235 0.74461 0.747646
0.946349 0.74551 0.748562
0.947463 0.74641 0.749462
0.948592 0.747326 0.750378
0.949722 0.748241 0.751293
0.950866 0.749172 0.752224
0.39678 0.287083 0.604089
0.0912032 0.461418 0.665934
0.175616 0.68307 0.901854
0.10837 0.676143 0.307515
0.358343 0.727321 0.280629
0.578485 0.791196 0.252506
0.475486 0.475486 0.475486
0.476738 0.476738 0.476738
1 0.962829 0.646357
0.175906 0.683909 0.902922
0.108476 0.676539 0.307729
0.358785 0.728099 0.280995
0.578927 0.791791 0.252735
0.475914 0.475914 0.475914
0.477134 0.477134 0.477134
1 0.963241 0.646632
1 0.964126 0.647257
0.965179 0.446403 0.167971
0.359304 0.729061 0.281422
0.579461 0.792493 0.25301
0.476478 0.476478 0.476478
0.477638 0.477638 0.477638
0.991623 0.897917 0.0112917
1 0.964569 0.647547
0.965759 0.446693 0.168109
0.967346 0.447501 0.168505
0.950576 0.639963 0.280705
0.47715 0.47715 0.47715
0.478279 0.478279 0.478279
0.992325 0.898558 0.0113069
1 0.965026 0.647868
0.966476 0.447059 0.168292
0.968002 0.447852 0.168673
0.951202 0.640406 0.280934
0.952819 0.641535 0.281514
0.925551 0.120882 0.152026
0.993133 0.89929 0.0113222
1 0.965545 0.648203
0.967285 0.447486 0.16849
0.968795 0.448249 0.168872
0.95198 0.64094 0.281209
0.953536 0.642039 0.281773
0.926329 0.12105 0.152209
0.928328 0.121477 0.152697
0.878874 0.489113 0.552956
0.968231 0.447959 0.168734
0.969696 0.448707 0.1691
0.95285 0.641566 0.281529
0.954391 0.642649 0.282078
0.927321 0.121263 0.152453
0.929244 0.12166 0.152926
0.879683 0.489586 0.553475
0.881514 0.490684 0.554711
0.943358 0.743099 0.746136
0.953872 0.642283 0.281895
0.955352 0.64332 0.282429
0.928496 0.121508 0.152743
0.930358 0.121904 0.153201
0.880659 0.490181 0.554131
0.882429 0.491234 0.555322
0.943938 0.743572 0.746609
0.945083 0.744488 0.747539
0.946227 0.745418 0.74847
0.929885 0.121813 0.153079
0.93167 0.122194 0.153521
0.881804 0.490867 0.55491
0.883528 0.491905 0.556054
0.944564 0.744076 0.747112
0.945693 0.744976 0.748028
0.946822 0.745907 0.748943
0.947967 0.746822 0.749874
0.949111 0.747738 0.75079
0.883146 0.491676 0.555795
0.884794 0.492668 0.556893
0.945266 0.74464 0.747677
0.94638 0.745541 0.748577
0.947478 0.746426 0.749477
0.948592 0.747326 0.750378
0.949722 0.748241 0.751293
0.950851 0.749157 0.752209
0.951995 0.750072 0.75314
0.634592 0.503685 0.734874
0.175677 0.683223 0.902052
0.109621 0.680797 0.309972
0.358404 0.727428 0.280674
0.359411 0.729244 0.281514
0.579568 0.79263 0.253071
0.476738 0.476738 0.476738
0.990463 0.896849 0.0112612
1 0.963729 0.647044
0.109728 0.681208 0.31017
0.358877 0.728283 0.281071
0.359838 0.730007 0.281865
0.580011 0.79321 0.2533
0.47718 0.47718 0.47718
0.991028 0.897368 0.0112764
1 0.964126 0.647303
1 0.965026 0.647944
0.966751 0.447211 0.168368
0.360372 0.730983 0.282307
0.580545 0.793912 0.253574
0.477729 0.477729 0.477729
0.991669 0.897948 0.0112917
1 0.964584 0.647608
1 0.965454 0.648234
0.967346 0.447501 0.168505
0.968917 0.44831 0.168902
0.952193 0.641093 0.281285
0.478416 0.478416 0.478416
0.992416 0.898634 0.0113069
1 0.965057 0.647929
1 0.965927 0.648539
0.968048 0.447868 0.168688
0.969573 0.448646 0.16907
0.952819 0.641535 0.281514
0.954437 0.64268 0.282094
0.92755 0.121309 0.152514
1 0.965576 0.64828
1 0.96643 0.64889
0.968872 0.448295 0.168887
0.970367 0.449058 0.169268
0.953597 0.642084 0.281804
0.955154 0.643183 0.282353
0.928328 0.121477 0.152697
0.878859 0.489097 0.552941
0.88072 0.490211 0.554177
0.969818 0.448768 0.169131
0.971267 0.449516 0.169497
0.954482 0.64271 0.282109
0.956008 0.643778 0.282673
0.92932 0.121691 0.152941
0.879713 0.489601 0.553506
0.881514 0.4907 0.554711
0.943358 0.743099 0.746136
0.944518 0.74403 0.747066
0.955489 0.643427 0.28249
0.95697 0.644465 0.283024
0.930495 0.121935 0.153231
0.880766 0.490242 0.554208
0.88249 0.491279 0.555367
0.943954 0.743572 0.746609
0.945083 0.744503 0.747539
0.946227 0.745418 0.748455
0.947372 0.746349 0.749386
0.931868 0.122225 0.153567
0.881956 0.490959 0.555001
0.88365 0.491981 0.55613
0.94461 0.744106 0.747143
0.945708 0.745007 0.748043
0.946838 0.745907 0.748959
0.947967 0.746822 0.749874
0.949096 0.747738 0.75079
0.95024 0.748669 0.75172
0.884978 0.492775 0.557015
0.945327 0.744686 0.747723
0.94641 0.745571 0.748608
0.947509 0.746456 0.749508
0.948623 0.747356 0.750393
0.949737 0.748257 0.751308
0.950866 0.749157 0.752224
0.95198 0.750072 0.753124
0.953124 0.750988 0.754055
