NikonZR_ELZONE_V2.cube
TITLE "Generated by Resolve & Made by Kouraku"
LUT_3D_SIZE 5
0.392386 0.283665 0.597864
0.393606 0.284627 0.599603
0.172625 0.674571 0.890959
0.353399 0.718395 0.276524
0.574456 0.785916 0.250416
0.17319 0.676188 0.893034
0.354208 0.719844 0.277195
0.575265 0.786969 0.250843
0.984771 0.891646 0.0111391
1 0.961151 0.644816
0.57641 0.788479 0.251438
0.98616 0.892927 0.0111696
1 0.962051 0.645411
0.962798 0.445182 0.167376
0.94754 0.637827 0.279606
1 0.963104 0.646113
0.964492 0.446052 0.167788
0.949111 0.638926 0.280171
0.871962 0.484947 0.548348
0.93843 0.739132 0.742138
0.951186 0.640391 0.280934
0.925338 0.120836 0.151965
0.939681 0.740124 0.74316
0.94197 0.74197 0.745007
0.944274 0.743832 0.746868
0.393606 0.284627 0.599588
0.394842 0.285588 0.601343
0.103075 0.656382 0.297154
0.355337 0.721889 0.278126
0.472007 0.472007 0.472007
0.101961 0.652186 0.294957
0.356146 0.723339 0.278798
0.472816 0.472816 0.472816
1 0.961059 0.644831
0.961273 0.444389 0.166979
0.474144 0.474144 0.474144
1 0.96202 0.645472
0.962631 0.44509 0.16733
0.947295 0.637644 0.279515
0.920745 0.119844 0.150835
0.964477 0.446036 0.167788
0.949035 0.63888 0.28014
0.922652 0.120256 0.151308
0.875364 0.486992 0.550607
0.940627 0.740887 0.743923
0.925338 0.120836 0.151965
0.877623 0.48835 0.552117
0.941878 0.741894 0.74493
0.944137 0.743725 0.746761
0.946441 0.745586 0.748638
0.394858 0.285603 0.601373
0.0871901 0.449607 0.649805
0.104417 0.661402 0.299794
0.576364 0.788403 0.251408
0.474372 0.474372 0.474372
0.104646 0.662211 0.300221
0.577279 0.789624 0.251881
0.475166 0.475166 0.475166
1 0.962814 0.646159
0.964294 0.445945 0.167742
0.476493 0.476493 0.476493
1 0.96376 0.646799
0.965667 0.446647 0.168093
0.950393 0.639826 0.280644
0.924514 0.120653 0.151766
0.967514 0.447593 0.168551
0.952117 0.641047 0.28127
0.926421 0.121065 0.152239
0.878843 0.489082 0.552926
0.942855 0.742687 0.745724
0.929107 0.121645 0.152895
0.881102 0.49044 0.554437
0.944091 0.743694 0.746731
0.946349 0.74551 0.748562
0.948638 0.747372 0.750408
0.396124 0.28658 0.603174
0.17499 0.6813 0.89958
0.357305 0.725429 0.279759
0.47425 0.47425 0.47425
0.989059 0.895567 0.0112306
0.358267 0.727169 0.280552
0.475242 0.475242 0.475242
0.990204 0.89662 0.0112612
1 0.964569 0.647501
0.948974 0.638819 0.280125
0.991714 0.897993 0.0112917
1 0.965515 0.648142
0.950362 0.639811 0.280629
0.924346 0.120623 0.15172
0.877058 0.488014 0.551736
0.970596 0.449165 0.169329
0.926528 0.12108 0.152255
0.878843 0.489082 0.552926
0.942794 0.742641 0.745678
0.945098 0.744503 0.747539
0.881315 0.490578 0.554574
0.944121 0.743725 0.746761
0.946349 0.74551 0.748562
0.948592 0.747326 0.750378
0.950866 0.749172 0.752224
0.634592 0.503685 0.734874
0.109621 0.680797 0.309972
0.359411 0.729244 0.281514
0.476738 0.476738 0.476738
1 0.963729 0.647044
0.360372 0.730983 0.282307
0.477729 0.477729 0.477729
1 0.964584 0.647608
0.967346 0.447501 0.168505
0.952193 0.641093 0.281285
1 0.965576 0.64828
0.968872 0.448295 0.168887
0.953597 0.642084 0.281804
0.928328 0.121477 0.152697
0.88072 0.490211 0.554177
0.955489 0.643427 0.28249
0.930495 0.121935 0.153231
0.88249 0.491279 0.555367
0.945083 0.744503 0.747539
0.947372 0.746349 0.749386
0.884978 0.492775 0.557015
0.94641 0.745571 0.748608
0.948623 0.747356 0.750393
0.950866 0.749157 0.752224
0.953124 0.750988 0.754055
