NikonZR_ELZONE.cube
TITLE "Generated by Resolve"
LUT_3D_SIZE 9
0 0 0
0.568627 0 0
1 0 0
1 0 0
1 0 0
1 0 0
1 0 0
1 0 0
1 0 0
0 0.784314 0
0.568627 0.784314 6.10361e-05
1 0.784314 0
1 0.784314 0
1 0.784314 1.5259e-05
1 0.784314 0
1 0.784314 0
1 0.784314 0
1 0.784314 0
0 0.972549 0
0.568627 0.972549 0
1 0.972549 7.62951e-05
1 0.972549 1.5259e-05
1 0.972549 0
1 0.972549 0
1 0.972549 0
1 0.972549 0
1 0.972549 0
0 0 0
0.568627 0 0
1 0 0
1 0 9.15541e-05
1 0 3.0518e-05
1 0 0
1 0 0
1 0 0
1 0 0
0 0 0
0.568627 0 4.57771e-05
1 0 0
1 0 0
1 0 0.000106813
1 0 0
1 0 0
1 0 0
1 0 0
0 1 0
0.568627 1 0
1 1 0
1 1 0
1 1 0
1 1 0
1 1 0
1 1 0
1 1 0
0 1 0
0.568627 1 0
1 1 0
1 1 0
1 1 0
1 1 0
1 1 0
1 1 0
1 1 0
0 1 0
0.568627 1 0
1 1 0
1 1 0
1 1 0
1 1 0
1 1 0
1 1 0
1 1 0
0 1 0
0.568627 1 0
1 1 0
1 1 0
1 1 0
1 1 0
1 1 0
1 1 0
1 1 0
0 0 0.243137
0.568627 0 0.243137
1 0 0.243137
1 0 0.243137
1 0 0.243137
1 0 0.243137
1 0 0.243137
1 0 0.243137
1 0 0.243137
0 0.784314 0.243137
0.568627 0.784314 0.243137
1 0.784314 0.243137
1 0.784314 0.243137
1 0.784314 0.243137
1 0.784314 0.243137
1 0.784314 0.243137
1 0.784314 0.243137
1 0.784314 0.243137
0 0.972549 0.243137
0.568627 0.972549 0.243137
1 0.972549 0.243137
1 0.972549 0.243137
1 0.972549 0.243137
1 0.972549 0.243137
1 0.972549 0.243137
1 0.972549 0.243137
1 0.972549 0.243137
0 0 0.243137
0.568627 0 0.243137
1 0 0.243137
1 0 0.243137
1 0 0.243137
1 0 0.243137
1 0 0.243137
1 0 0.243137
1 0 0.243137
0 0 0.243137
0.568627 0 0.243137
1 0 0.243137
1 0 0.243137
1 0 0.243137
1 0 0.243137
1 0 0.243137
1 0 0.243137
1 0 0.243137
0 1 0.243137
0.568627 1 0.243137
1 1 0.243137
1 1 0.243137
1 1 0.243137
1 1 0.243137
1 1 0.243137
1 1 0.243137
1 1 0.243137
0 1 0.243137
0.568627 1 0.243137
1 1 0.243137
1 1 0.243137
1 1 0.243137
1 1 0.243137
1 1 0.243137
1 1 0.243137
1 1 0.243137
0 1 0.243137
0.568627 1 0.243137
1 1 0.243137
1 1 0.243137
1 1 0.243137
1 1 0.243137
1 1 0.243137
1 1 0.243137
1 1 0.243137
0 1 0.243137
0.568627 1 0.243137
1 1 0.243137
1 1 0.243137
1 1 0.243137
1 1 0.243137
1 1 0.243137
1 1 0.243137
1 1 0.243137
0 0 0.654902
0.568627 0 0.654902
1 0 0.654902
1 0 0.654902
1 0 0.654902
1 0 0.654902
1 0 0.654902
1 0 0.654902
1 0 0.654902
0 0.784314 0.654902
0.568627 0.784314 0.654902
1 0.784314 0.654902
1 0.784314 0.654902
1 0.784314 0.654902
1 0.784314 0.654902
1 0.784314 0.654902
1 0.784314 0.654902
1 0.784314 0.654902
4.57771e-05 0.972549 0.654902
0.568627 0.972549 0.654902
1 0.972549 0.654902
1 0.972549 0.654902
1 0.972549 0.654902
1 0.972549 0.654902
1 0.972549 0.654902
1 0.972549 0.654902
1 0.972549 0.654902
0 0 0.654902
0.568627 0 0.654902
1 0 0.654902
1 0 0.654902
1 0 0.654902
1 0 0.654902
1 0 0.654902
1 0 0.654902
1 0 0.654902
0 0 0.654902
0.568627 0 0.654902
1 0 0.654902
1 0 0.654902
1 0 0.654902
1 0 0.654902
1 0 0.654902
1 0 0.654902
1 0 0.654902
0 1 0.654902
0.568627 1 0.654902
1 1 0.654902
1 1 0.654902
1 1 0.654902
1 1 0.654902
1 1 0.654902
1 1 0.654902
1 1 0.654902
0 1 0.654902
0.568627 1 0.654902
1 1 0.654902
1 1 0.654902
1 1 0.654902
1 1 0.654902
1 1 0.654902
1 1 0.654902
1 1 0.654902
0 1 0.654902
0.568627 1 0.654902
1 1 0.654902
1 1 0.654902
1 1 0.654902
1 1 0.654902
1 1 0.654902
1 1 0.654902
1 1 0.654902
0 1 0.654902
0.568627 1 0.654902
1 1 0.654902
1 1 0.654902
1 1 0.654902
1 1 0.654902
1 1 0.654902
1 1 0.654902
1 1 0.654902
0 0 1
0.568627 0 1
1 0 1
1 0 1
1 0 1
1 0 1
1 0 1
1 0 1
1 0 1
0 0.784314 1
0.568627 0.784314 1
1 0.784314 1
1 0.784314 1
1 0.784314 1
1 0.784314 1
1 0.784314 1
1 0.784314 1
1 0.784314 1
3.0518e-05 0.972549 1
0.568627 0.972549 1
1 0.972549 1
1 0.972549 1
1 0.972549 1
1 0.972549 1
1 0.972549 1
1 0.972549 1
1 0.972549 1
0 0 1
0.568627 0 1
1 0 1
1 0 1
1 0 1
1 0 1
1 0 1
1 0 1
1 0 1
0 0 1
0.568627 0 1
1 0 1
1 0 1
1 0 1
1 0 1
1 0 1
1 0 1
1 0 1
0 1 1
0.568627 1 1
1 1 1
1 1 1
1 1 1
1 1 1
1 1 1
1 1 1
1 1 1
0 1 1
0.568627 1 1
1 1 1
1 1 1
1 1 1
1 1 1
1 1 1
1 1 1
1 1 1
0 1 1
0.568627 1 1
1 1 1
1 1 1
1 1 1
1 1 1
1 1 1
1 1 1
1 1 1
0 1 1
0.568627 1 1
1 1 1
1 1 1
1 1 1
1 1 1
1 1 1
1 1 1
1 1 1
0 0 1
0.568627 0 1
1 0 1
1 0 1
1 0 1
1 0 1
1 0 1
1 0 1
1 0 1
0 0.784314 1
0.568627 0.784314 1
1 0.784314 1
1 0.784314 1
1 0.784314 1
1 0.784314 1
1 0.784314 1
1 0.784314 1
1 0.784314 1
1.5259e-05 0.972549 1
0.568627 0.972549 1
1 0.972549 1
1 0.972549 1
1 0.972549 1
1 0.972549 1
1 0.972549 1
1 0.972549 1
1 0.972549 1
0 0 1
0.568627 0 1
1 0 1
1 0 1
1 0 1
1 0 1
1 0 1
1 0 1
1 0 1
0 0 1
0.568627 0 1
1 0 1
1 0 1
1 0 1
1 0 1
1 0 1
1 0 1
1 0 1
0 1 1
0.568627 1 1
1 1 1
1 1 1
1 1 1
1 1 1
1 1 1
1 1 1
1 1 1
0 1 1
0.568627 1 1
1 1 1
1 1 1
1 1 1
1 1 1
1 1 1
1 1 1
1 1 1
0 1 1
0.568627 1 1
1 1 1
1 1 1
1 1 1
1 1 1
1 1 1
1 1 1
1 1 1
0 1 1
0.568627 1 1
1 1 1
1 1 1
1 1 1
1 1 1
1 1 1
1 1 1
1 1 1
0 0 1
0.568627 0 1
1 0 1
1 0 1
1 0 1
1 0 1
1 0 1
1 0 1
1 0 1
0 0.784314 1
0.568627 0.784314 1
1 0.784314 1
1 0.784314 1
1 0.784314 1
1 0.784314 1
1 0.784314 1
1 0.784314 1
1 0.784314 1
0 0.972549 1
0.568627 0.972549 1
1 0.972549 1
1 0.972549 1
1 0.972549 1
1 0.972549 1
1 0.972549 1
1 0.972549 1
1 0.972549 1
0 0 1
0.568627 0 1
1 0 1
1 0 1
1 0 1
1 0 1
1 0 1
1 0 1
1 0 1
0 0 1
0.568627 0 1
1 0 1
1 0 1
1 0 1
1 0 1
1 0 1
1 0 1
1 0 1
0 1 1
0.568627 1 1
1 1 1
1 1 1
1 1 1
1 1 1
1 1 1
1 1 1
1 1 1
0 1 1
0.568627 1 1
1 1 1
1 1 1
1 1 1
1 1 1
1 1 1
1 1 1
1 1 1
0 1 1
0.568627 1 1
1 1 1
1 1 1
1 1 1
1 1 1
1 1 1
1 1 1
1 1 1
0 1 1
0.568627 1 1
1 1 1
1 1 1
1 1 1
1 1 1
1 1 1
1 1 1
1 1 1
0 0 1
0.568627 0 1
1 0 1
1 0 1
1 0 1
1 0 1
1 0 1
1 0 1
1 0 1
0 0.784314 1
0.568627 0.784314 1
1 0.784314 1
1 0.784314 1
1 0.784314 1
1 0.784314 1
1 0.784314 1
1 0.784314 1
1 0.784314 1
0 0.972549 1
0.568627 0.972549 1
1 0.972549 1
1 0.972549 1
1 0.972549 1
1 0.972549 1
1 0.972549 1
1 0.972549 1
1 0.972549 1
0 0 1
0.568627 0 1
1 0 1
1 0 1
1 0 1
1 0 1
1 0 1
1 0 1
1 0 1
0 0 1
0.568627 0 1
1 0 1
1 0 1
1 0 1
1 0 1
1 0 1
1 0 1
1 0 1
0 1 1
0.568627 1 1
1 1 1
1 1 1
1 1 1
1 1 1
1 1 1
1 1 1
1 1 1
0 1 1
0.568627 1 1
1 1 1
1 1 1
1 1 1
1 1 1
1 1 1
1 1 1
1 1 1
0 1 1
0.568627 1 1
1 1 1
1 1 1
1 1 1
1 1 1
1 1 1
1 1 1
1 1 1
0 1 1
0.568627 1 1
1 1 1
1 1 1
1 1 1
1 1 1
1 1 1
1 1 1
1 1 1
0 0 1
0.568627 0 1
1 0 1
1 0 1
1 0 1
1 0 1
1 0 1
1 0 1
1 0 1
0 0.784314 1
0.568627 0.784314 1
1 0.784314 1
1 0.784314 1
1 0.784314 1
1 0.784314 1
1 0.784314 1
1 0.784314 1
1 0.784314 1
0 0.972549 1
0.568627 0.972549 1
1 0.972549 1
1 0.972549 1
1 0.972549 1
1 0.972549 1
1 0.972549 1
1 0.972549 1
1 0.972549 1
0 0 1
0.568627 0 1
1 0 1
1 0 1
1 0 1
1 0 1
1 0 1
1 0 1
1 0 1
0 0 1
0.568627 0 1
1 0 1
1 0 1
1 0 1
1 0 1
1 0 1
1 0 1
1 0 1
0 1 1
0.568627 1 1
1 1 1
1 1 1
1 1 1
1 1 1
1 1 1
1 1 1
1 1 1
0 1 1
0.568627 1 1
1 1 1
1 1 1
1 1 1
1 1 1
1 1 1
1 1 1
1 1 1
0 1 1
0.568627 1 1
1 1 1
1 1 1
1 1 1
1 1 1
1 1 1
1 1 1
1 1 1
0 1 1
0.568627 1 1
1 1 1
1 1 1
1 1 1
1 1 1
1 1 1
1 1 1
1 1 1
0 0 1
0.568627 0 1
1 0 1
1 0 1
1 0 1
1 0 1
1 0 1
1 0 1
1 0 1
0 0.784314 1
0.568627 0.784314 1
1 0.784314 1
1 0.784314 1
1 0.784314 1
1 0.784314 1
1 0.784314 1
1 0.784314 1
1 0.784314 1
0 0.972549 1
0.568627 0.972549 1
1 0.972549 1
1 0.972549 1
1 0.972549 1
1 0.972549 1
1 0.972549 1
1 0.972549 1
1 0.972549 1
0 0 1
0.568627 0 1
1 0 1
1 0 1
1 0 1
1 0 1
1 0 1
1 0 1
1 0 1
0 0 1
0.568627 0 1
1 0 1
1 0 1
1 0 1
1 0 1
1 0 1
1 0 1
1 0 1
0 1 1
0.568627 1 1
1 1 1
1 1 1
1 1 1
1 1 1
1 1 1
1 1 1
1 1 1
0 1 1
0.568627 1 1
1 1 1
1 1 1
1 1 1
1 1 1
1 1 1
1 1 1
1 1 1
0 1 1
0.568627 1 1
1 1 1
1 1 1
1 1 1
1 1 1
1 1 1
1 1 1
1 1 1
0 1 1
0.568627 1 1
1 1 1
1 1 1
1 1 1
1 1 1
1 1 1
1 1 1
1 1 1
